X:1
T:King’s College, 77.77 D
T:King’s College, 77.77 D
T:D. F. Klick, 1893
T:Public Domain Courtesy of the Cyber Hymnal™
C:D. F. Klick, 1893
Z:Public Domain
Z:Courtesy of the Cyber Hymnal™
%%score ( 1 2 ) ( 3 4 )
L:1/8
Q:1/4=108
M:4/4
K:Eb
V:1 treble 
V:2 treble 
V:3 bass 
V:4 bass 
V:1
 [Ge]3 [Fd] [Ee]2 [EB]2 | [Ec]2 ([DB][FA]) [EG]4 | [DF]3 [DF] [EG]2 [EG]2 | [EA]2 [EG]2 [DF]4 | %4
 [Ge]3 [Fd] [Ee]2 [EB]2 | [Ec]2 ([DB][FA]) [EG]4 | [B,E]3 [=B,D] C2 [CF]2 | [B,E]2 [B,D]2 [B,E]4 | %8
 [B,D]3 [B,D] [B,E]2 [EG]2 | [EA]2 [EG]2 [DF]4 | [EG]3 [FG] [EG]2 [EG]2 | [E=A]2 [EA]2 [DB]4 | %12
 [Ge]3 [Fd] [Ee]2 [EB]2 | [Ec]2 ([DB][FA]) [EG]4 | [B,E]3 [=B,D] C2 [CF]2 | [B,E]2 [B,D]2 [B,E]4 |] %16
V:2
 x8 | x8 | x8 | x8 | x8 | x8 | x4 C2 x2 | x8 | x8 | x8 | x8 | x8 | x8 | x8 | x4 C2 x2 | x8 |] %16
V:3
 [E,B,]3 [A,B,] [G,B,]2 [E,G,]2 | [A,,A,]2 (F,B,) [E,B,]4 | [B,,B,]3 [B,,B,] [E,B,]2 [C,C]2 | %3
 [A,,C]2 B,2 B,4 | [E,B,]3 [A,B,] [G,B,]2 [E,G,]2 | [A,,A,]2 (F,B,) [E,B,]4 | %6
 [E,G,]3 [G,,F,] [A,,E,]2 [A,,A,]2 | [B,,G,]2 [B,,A,]2 [E,G,]4 | B,3 [A,B,] [G,B,]2 [E,B,]2 | %9
 [A,,C]2 [E,B,]2 [B,,B,]4 | [E,B,]3 [D,=B,] [C,C]2 [E,C]2 | [F,C]2 [F,C]2 B,4 | %12
 [E,B,]3 [A,B,] [G,B,]2 [E,G,]2 | [A,,A,]2 (F,B,) [E,B,]4 | [E,G,]3 [G,,F,] [A,,E,]2 [A,,A,]2 | %15
 [B,,G,]2 [B,,A,]2 [E,G,]4 |] %16
V:4
 x8 | x2 B,,2 x4 | x8 | x2 (E,G,) B,4 | x8 | x2 B,,2 x4 | x8 | x8 | B,3 x5 | x8 | x8 | x4 B,4 | %12
 x8 | x2 B,,2 x4 | x8 | x8 |] %16

